!!!!SEGMENT: pl-kk--kk-i-312_anonim--veni-creator.krn
!!!cenid: 17xx:2112
!!!COM: Anonim
!!!COM-rismID: pe30004985
!!!CDT:
!!!CNT:
!!!OTL: Veni creator
!!!PDT:
!!!AGN: Sacred
!!!SMS-siglum: PL-Kk
!!!SMS-shelfmark: Kk.I.312
!!!SMS-shelfwork: W
!!!SMS-variant:
!!!SMS-altvar:
!!!NIFC-rismSourceID: 1001147265
!!!NIFC-islandoraID: pl-kk:5266
!!!URL-pdf-islandora: https://repozytorium.nifc.pl/islandora/object/pl-kk%3A5266/datastream/PDF/view
!!!URL-scan: https://polish.musicsources.pl/pl/lokalizacje/galeria/rekopisy/5931 @EN{Scan on Polish Music Sources Website} @PL{Skany w portalu Dziedzictwo Muzyki Polskiej w otwartym dostępie}
!!!ONB-nifc:
!!!AIN: 1 alto 1 empty 1 tenor 1 vox
!!!key:
**kern	**text	**text	**text	**kern	**text	**text	**text	**kern	**text	**text	**text	**kern	**text	**text	**text
*part4	*part4	*part4	*part4	*part3	*part3	*part3	*part3	*part2	*part2	*part2	*part2	*part1	*part1	*part1	*part1
*staff4	*staff4	*staff4	*staff4	*staff3	*staff3	*staff3	*staff3	*staff2	*staff2	*staff2	*staff2	*staff1	*staff1	*staff1	*staff1
*Iempty	*	*	*	*Itenor	*	*	*	*Ialto	*	*	*	*Ivox	*	*	*
*I"Baſso.	*	*	*	*I"Tenore	*	*	*	*I"Alto.	*	*	*	*I"Canto.	*	*	*
*I'B	*	*	*	*I'T	*	*	*	*I'A	*	*	*	*I'S	*	*	*
*clefF4	*	*	*	*clefC4	*	*	*	*clefC3	*	*	*	*clefC1	*	*	*
*k[]	*	*	*	*k[]	*	*	*	*k[]	*	*	*	*k[]	*	*	*
*C:	*	*	*	*C:	*	*	*	*C:	*	*	*	*C:	*	*	*
*M3/1	*	*	*	*M3/1	*	*	*	*M3/1	*	*	*	*M3/1	*	*	*
=1-	=1-	=1-	=1-	=1-	=1-	=1-	=1-	=1-	=1-	=1-	=1-	=1-	=1-	=1-	=1-
!LO:TX:a:t=2.	!	!	!	!	!	!	!	!	!	!	!	!	!	!	!
!LO:TX:t=P:problem=przed kluczem inicjał V	!	!	!	!LO:TX:t=P:problem=przed kluczem inicjał V	!	!	!	!LO:TX:t=P:problem=przed kluczem inicjał V	!	!	!	!LO:TX:t=P:problem=przed kluczem inicjał V	!	!	!
1G	1 Ve-	4 Ac-	5 Ho-	1d	1 Vê-	4 Ac-	5 Ho-	1g	1 Ve-	4 Ac-	5 Ho-	1b	1 Ve-	4 Ac-	5 Ho-
1G	-ni	-cen-	-ſtem	1d	-ni	-cên-	-ſtem	1g	-ni	-cen-	-ſtêm	1b	-ni	-cen-	-ſtem
!LO:TX:t=P:problem=kreska pseudotaktowa	!	!	!	!LO:TX:t=P:problem=kreska pseudotaktowa	!	!	!	!LO:TX:t=P:problem=kreska pseudotaktowa	!	!	!	!LO:TX:t=P:problem=kreska pseudotaktowa	!	!	!
1G	Crê-	-de	re-	1d	Crê-	-de	re-	1g	Cre-	-de	re-	1b	Cre-	-de	re-
=2-	=2-	=2-	=2-	=2-	=2-	=2-	=2-	=2-	=2-	=2-	=2-	=2-	=2-	=2-	=2-
!	!	!	!	!	!	!	!	!LO:TX:a:t=P:problem=# above	!	!	!	!	!	!	!
0D	-a-	lu-	-pel-	0d	-a-	lu-	-pel-	0f#X	-a-	lu-	-pel-	0a	-a-	lu-	-pel-
!LO:TX:t=P:problem=kreska pseudotaktowa	!	!	!	!LO:TX:t=P:problem=kreska pseudotaktowa	!	!	!	!LO:TX:t=P:problem=kreska pseudotaktowa	!	!	!	!LO:TX:t=P:problem=kreska pseudotaktowa	!	!	!
1G	-tor	-mên	-laſ	1d	-tor	-men	-laſ	1g	-tor	-men	-laſ	1b	-tor	-men	-laſ
=3-	=3-	=3-	=3-	=3-	=3-	=3-	=3-	=3-	=3-	=3-	=3-	=3-	=3-	=3-	=3-
0C	Ve-	lü-	ho-	0e	Vê-	lu-	ho-	0g	Ve-	lu-	ho-	0cc	Ve-	lu-	ho-
!LO:TX:t=P:problem=kreska pseudotaktowa	!	!	!	!LO:TX:t=P:problem=kreska pseudotaktowa	!	!	!	!LO:TX:t=P:problem=kreska pseudotaktowa	!	!	!	!LO:TX:t=P:problem=kreska pseudotaktowa	!	!	!
1C	-ni	-mên	-ſtem	1e	-ni	-men	-ſtem	1g	-ni	-men	-ſtêm	1cc	-ni	-men	-ſtêm
=4-	=4-	=4-	=4-	=4-	=4-	=4-	=4-	=4-	=4-	=4-	=4-	=4-	=4-	=4-	=4-
1G	Vê-	ac-	ho-	1d	Vê-	ac-	ho-	1g	Ve-	ac-	ho-	1b	ve-	ac-	ho-
1D	-ni	-cên-	-ſtêm	1d	-ni	-cen-	-ſtêm	1f#X	-ni	-cen-	-ſtêm	1a	-ni	-cen-	-ſtem
!LO:TX:t=P:problem=kreska pseudotaktowa	!	!	!	!	!	!	!	!LO:TX:t=P:problem=kreska pseudotaktowa	!	!	!	!LO:TX:t=P:problem=kreska pseudotaktowa	!	!	!
1G	Crê-	-dê	re-	1d	Crê-	-de	re-	1g	Cre-	-de	re-	1b	Cre-	-de	re-
=5-	=5-	=5-	=5-	=5-	=5-	=5-	=5-	=5-	=5-	=5-	=5-	=5-	=5-	=5-	=5-
0C	-a-	lu-	-pel-	0e	-a-	lu-	-pêl-	0g	-a-	lu-	-pel-	0cc	-a-	lu-	-pel-
!	!	!	!	!LO:TX:t=P:problem=kreska pseudotaktowa	!	!	!	!LO:TX:t=P:problem=kreska pseudotaktowa	!	!	!	!LO:TX:t=P:problem=kreska pseudotaktowa	!	!	!
1D	-tor	-men	-laſ	1d	-tor	-men	-las	1f#X	-tor	-men	-laſ	1a	-tor	-mên	-laſ
=6-	=6-	=6-	=6-	=6-	=6-	=6-	=6-	=6-	=6-	=6-	=6-	=6-	=6-	=6-	=6-
1.GG	Spi-	ſen-	lon-	1.d	Spi-	ſên-	lon-	1.g	Spi-	ſen-	lon-	1.b	Spi-	ſen-	lon-
2GG/	-ri-	-ſi-	-gi-	2d\	-ri-	-ſi-	-gi-	2g\	-ri-	-ſi-	-gi-	2b\	-ri-	-ſi-	-gi-
!LO:TX:t=P:problem=kreska pseudotaktowa	!	!	!	!	!	!	!	!	!	!	!	!	!	!	!
1GG	-t(us)	-b(us)	-(us)	1d	-t(us)	-b(us)	-(us)	1g	-t(us)	-b(us)	-(us)	1b	-t(us)	-b(us)	-(us)
=7-	=7-	=7-	=7-	=7-	=7-	=7-	=7-	=7-	=7-	=7-	=7-	=7-	=7-	=7-	=7-
*M2/1	*	*	*	*M2/1	*	*	*	*M2/1	*	*	*	*M2/1	*	*	*
*met(C|)	*	*	*	*met(C|)	*	*	*	*met(C|)	*	*	*	*met(C|)	*	*	*
00r	.	.	.	00r	.	.	.	0r	.	.	.	1cc	Men-	in-	pa-
!	!	!	!	!	!	!	!	!	!	!	!	!LO:TX:t=P:problem=kreska pseudotaktowa	!	!	!
.	.	.	.	.	.	.	.	.	.	.	.	1g	-tes	-fun-	-cem-
=8-	=8-	=8-	=8-	=8-	=8-	=8-	=8-	=8-	=8-	=8-	=8-	=8-	=8-	=8-	=8-
!	!	!	!	!	!	!	!	!LO:TX:t=P:problem=kreska pseudotaktowa	!	!	!	!	!	!	!
.	.	.	.	.	.	.	.	1rc	.	.	.	1a	tu-	-de	-q(ue)
.	.	.	.	.	.	.	.	1g	Men-	in-	pa-	2b\	-o-	a-	do-
!	!	!	!	!	!	!	!	!	!	!	!	!LO:TX:t=P:problem=kreska pseudotaktowa	!	!	!
.	.	.	.	.	.	.	.	.	.	.	.	2b\	-ru(m)	-mo-	-nes
=9-	=9-	=9-	=9-	=9-	=9-	=9-	=9-	=9-	=9-	=9-	=9-	=9-	=9-	=9-	=9-
!	!	!	!	!LO:TX:t=P:problem=kreska pseudotaktowa	!	!	!	!	!	!	!	!	!	!	!
00r	.	.	.	0r	.	.	.	1c	-tes	-fun-	-cem-	2.cc\	Vi-	-rê(m)	pro-
!	!	!	!	!	!	!	!	!	!	!	!	!LO:TX:t=P:problem=kreska pseudotaktowa	!	!	!
.	.	.	.	.	.	.	.	.	.	.	.	4b\	.	.	.
!	!	!	!	!	!	!	!	!LO:TX:t=P:problem=kreska pseudotaktowa	!	!	!	!	!	!	!
.	.	.	.	.	.	.	.	1d	tu-	-de	-q(ue)	2.a\	.	cor-	.
.	.	.	.	.	.	.	.	.	.	.	.	4a\	-si-	-di-	-ti-
=10-	=10-	=10-	=10-	=10-	=10-	=10-	=10-	=10-	=10-	=10-	=10-	=10-	=10-	=10-	=10-
.	.	.	.	1c	Mên-	in-	pa-	2e\	-o-	a-	do-	2g/	-ta	-b(us)	-n(us)
.	.	.	.	.	.	.	.	2e\	-ru(m)	-mo-	-nes	4g\	Vi-	Cor-	pro-
*	*	*	*	*	*	*	*	*	*	*	*	*custos:b	*	*	*
!	!	!	!	!	!	!	!	!	!	!	!	!LO:TX:t=P:problem=kreska pseudotaktowa	!	!	!
.	.	.	.	.	.	.	.	.	.	.	.	4a\	.	.	.
!	!	!	!	!LO:TX:t=P:problem=kreska pseudotaktowa	!	!	!	!	!	!	!	!	!	!	!
!	!	!	!	!	!	!	!	!	!	!	!	!LO:LB:g=original	!	!	!
.	.	.	.	1G	-tes	-fun-	-cem-	2.g\	Vi-	-rem	pro-	4b\	.	.	.
.	.	.	.	.	.	.	.	.	.	.	.	4cc\	.	.	.
.	.	.	.	.	.	.	.	.	.	.	.	1dd\	.	.	.
!	!	!	!	!	!	!	!	!LO:TX:t=P:problem=kreska pseudotaktowa	!	!	!	!	!	!	!
.	.	.	.	.	.	.	.	4fny\	.	.	.	.	.	.	.
=11-	=11-	=11-	=11-	=11-	=11-	=11-	=11-	=11-	=11-	=11-	=11-	=11-	=11-	=11-	=11-
!LO:TX:t=P:problem=kreska pseudotaktowa	!	!	!	!	!	!	!	!	!	!	!	!	!	!	!
1rD	.	.	.	1A	tu-	-de	-q(ue)	2.e\	.	Cor-	.	.	.	.	.
!	!	!	!	!	!	!	!	!	!	!	!	!LO:TX:t=P:problem=kreska pseudotaktowa	!	!	!
!	!	!	!	!	!	!	!	!	!	!	!	!LO:TX:a:t=P:problem=# above	!	!	!
.	.	.	.	.	.	.	.	.	.	.	.	2cc#X\	-si-	-di-	-ti-
!	!	!	!	!	!	!	!	!LO:TX:t=P:problem=kreska pseudotaktowa	!	!	!	!	!	!	!
.	.	.	.	.	.	.	.	4e\	-si-	-di-	-ti-	.	.	.	.
1G	Mên-	In-	pa-	1B	-o-	a-	do-	2d\	-ta	-b(us)	-n(us)	1dd	-ta	-b(us)	-n(us)
.	.	.	.	.	.	.	.	4d\	Vi-	Cor-	pro-	.	.	.	.
.	.	.	.	.	.	.	.	4e\	.	.	.	.	.	.	.
=12-	=12-	=12-	=12-	=12-	=12-	=12-	=12-	=12-	=12-	=12-	=12-	=12-	=12-	=12-	=12-
*	*	*	*	*lig	*	*	*	*	*	*	*	*	*	*	*
!LO:TX:t=P:problem=kreska pseudotaktowa	!	!	!	!	!	!	!	!	!	!	!	!	!	!	!
!	!	!	!	!	!	!	!	!LO:LB:g=original	!	!	!	!	!	!	!
1D	-tes	-fun-	-cem-	1d	-ru(m)	-mo-	-nes	4f\	.	.	.	2rb	.	.	.
.	.	.	.	.	.	.	.	4g\	.	.	.	.	.	.	.
!	!	!	!	!	!	!	!	!	!	!	!	!LO:TX:t=P:problem=kreska pseudotaktowa	!	!	!
.	.	.	.	.	.	.	.	4a\	.	.	.	2dd\	men-	in-	pa-
!	!	!	!	!	!	!	!	!LO:TX:t=P:problem=kreska pseudotaktowa	!	!	!	!	!	!	!
.	.	.	.	.	.	.	.	4f\	.	.	.	.	.	.	.
!	!	!	!	!LO:TX:t=P:problem=kreska pseudotaktowa	!	!	!	!	!	!	!	!	!	!	!
2E\	tu-	-de	-q(ue)	1c	.	.	.	2e\	.	.	.	2g/	-teſ	-fun-	-cêm-
1F\	-o-	a-	do-	.	.	.	.	2c/	-si-	-po-	-ti-	1a\	tu-	-de	-q(ue)
*	*	*	*	*Xlig	*	*	*	*	*	*	*	*	*	*	*
=13-	=13-	=13-	=13-	=13-	=13-	=13-	=13-	=13-	=13-	=13-	=13-	=13-	=13-	=13-	=13-
*	*	*	*	*lig	*	*	*	*	*	*	*	*	*	*	*
.	.	.	.	1d	Vi-	-rê(m)	pro-	2f\	-ta	-ris	-n(us)	.	.	.	.
!LO:TX:t=P:problem=kreska pseudotaktowa	!	!	!	!	!	!	!	!LO:TX:t=P:problem=kreska pseudotaktowa	!	!	!	!LO:TX:t=P:problem=kreska pseudotaktowa	!	!	!
2G\	-ru(m)	-mo-	-nes	.	.	.	.	2d\	Mên-	in-	du-	2b\	-o-	a-	do-
4C/	Vi-	-re(m)	pro-	1e	.	.	.	2g\	-teſ	-fun-	-cto-	2ccny\	-ru(m)	-mo-	-nes
4D/	.	.	.	.	.	.	.	.	.	.	.	.	.	.	.
4E\	.	.	.	.	.	.	.	2g\	tu-	-de	-re	1cc\	Vi-	-re(m)	pro-
4F\	.	.	.	.	.	.	.	.	.	.	.	.	.	.	.
*	*	*	*	*Xlig	*	*	*	*	*	*	*	*	*	*	*
=14-	=14-	=14-	=14-	=14-	=14-	=14-	=14-	=14-	=14-	=14-	=14-	=14-	=14-	=14-	=14-
*lig	*	*	*	*lig	*	*	*	*	*	*	*	*	*	*	*
1G	.	.	.	1d	-si-	-cor-	-ti-	1.g	-o-	amo-	Sic	.	.	.	.
!	!	!	!	!	!	!	!	!	!	!	!	!LO:TX:t=P:problem=kreska pseudotaktowa	!	!	!
.	.	.	.	.	.	.	.	.	.	.	.	2b\	.	.	.
1A	.	.	.	1c	.	-di-	.	.	.	.	.	4a\	.	cor-	.
.	.	.	.	.	.	.	.	.	.	.	.	4b\	.	.	.
!	!	!	!	!	!	!	!	!LO:TX:t=P:problem=kreska pseudotaktowa	!	!	!	!	!	!	!
.	.	.	.	.	.	.	.	2f#X\	-ru(m)	-re(m)	Te	1cc\	-si-	-di-	-ti-
*Xlig	*	*	*	*Xlig	*	*	*	*	*	*	*	*	*	*	*
=15-	=15-	=15-	=15-	=15-	=15-	=15-	=15-	=15-	=15-	=15-	=15-	=15-	=15-	=15-	=15-
*	*	*	*	*custos:c	*	*	*	*	*	*	*	*	*	*	*
!	!	!	!	!LO:TX:t=P:problem=kreska pseudotaktowa	!	!	!	!	!	!	!	!	!	!	!
2.G\	.	cor-	.	1d	-ta	-b(us)	-n(us)	2.g\	Vi-	Cor-	prae-	.	.	.	.
!	!	!	!	!	!	!	!	!	!	!	!	!LO:TX:t=P:problem=kreska pseudotaktowa	!	!	!
.	.	.	.	.	.	.	.	.	.	.	.	2b\	-ta	-b(us)	-n(us)
*custos:C	*	*	*	*	*	*	*	*	*	*	*	*	*	*	*
4G\	-si-	-di-	-ti-	.	.	.	.	4g\	-ſi-	-di-	-vi-	.	.	.	.
!LO:TX:t=P:problem=kreska pseudotaktowa	!	!	!	!	!	!	!	!	!	!	!	!	!	!	!
!LO:LB:g=original	!	!	!	!LO:LB:g=original	!	!	!	!	!	!	!	!	!	!	!
1C	-ta	-b(us)	-n(us)	1c	im-	in-	Du-	2e\	-ta	-b(us)	-o	4cc\	im-	in-	du-
.	.	.	.	.	.	.	.	.	.	.	.	4g/	.	.	.
!	!	!	!	!	!	!	!	!LO:TX:t=P:problem=kreska pseudotaktowa	!	!	!	!LO:TX:t=P:problem=przekreślona synkopowana wartość	!	!	!
.	.	.	.	.	.	.	.	2e\	im-	in-	Du-	(<1a\	-ple	-fir-	-cto-
=16-	=16-	=16-	=16-	=16-	=16-	=16-	=16-	=16-	=16-	=16-	=16-	=16-	=16-	=16-	=16-
*	*	*	*	*lig	*	*	*	*	*	*	*	*	*	*	*
0r	.	.	.	1d	-ple	-fir-	-cto-	1fny	-ple	-fir-	-cto-	.	.	.	.
!	!	!	!	!	!	!	!	!	!	!	!	!LO:TX:t=P:problem=przekreślona synkopowana wartość	!	!	!
.	.	.	.	.	.	.	.	.	.	.	.	1b)	.	.	.
!	!	!	!	!LO:TX:t=P:problem=kreska pseudotaktowa	!	!	!	!	!	!	!	!	!	!	!
.	.	.	.	1e	.	.	.	2g\	Su-	-ma	-re	.	.	.	.
!	!	!	!	!	!	!	!	!LO:TX:t=P:problem=kreska pseudotaktowa	!	!	!	!LO:TX:t=P:problem=kreska pseudotaktowa	!	!	!
.	.	.	.	.	.	.	.	2g\	-per-	no-	Sic	2g/	Su-	-ma	-re
*	*	*	*	*Xlig	*	*	*	*	*	*	*	*	*	*	*
=17-	=17-	=17-	=17-	=17-	=17-	=17-	=17-	=17-	=17-	=17-	=17-	=17-	=17-	=17-	=17-
*	*	*	*	*lig	*	*	*	*	*	*	*	*	*	*	*
1F	im-	in-	Du-	1c	Su-	-ma	-re	2f\	-na	-ſtri	te	2a\	-per-	no-	Sic
!	!	!	!	!	!	!	!	!	!	!	!	!LO:TX:t=P:problem=kreska pseudotaktowa	!	!	!
.	.	.	.	.	.	.	.	4f\	gra-	cor-	prae-	2a\	-na	-ſtri	Te
.	.	.	.	.	.	.	.	4e\	-ti-	-po-	-vi-	.	.	.	.
!LO:TX:t=P:problem=kreska pseudotaktowa	!	!	!	!	!	!	!	!	!	!	!	!	!	!	!
1G	-ple	-fur-	-cto-	1B	.	.	.	[<2d\	-a	-ris	-o	4b\	gra-	cor-	prae-
.	.	.	.	.	.	.	.	.	.	.	.	4cc\	.	.	.
!	!	!	!	!	!	!	!	!LO:TX:t=P:problem=kreska pseudotaktowa	!	!	!	!	!	!	!
.	.	.	.	.	.	.	.	2d]	.	.	.	4dd\	.	.	.
!	!	!	!	!	!	!	!	!	!	!	!	!LO:TX:t=P:problem=kreska pseudotaktowa	!	!	!
.	.	.	.	.	.	.	.	.	.	.	.	4b\	.	.	.
*	*	*	*	*Xlig	*	*	*	*	*	*	*	*	*	*	*
=18-	=18-	=18-	=18-	=18-	=18-	=18-	=18-	=18-	=18-	=18-	=18-	=18-	=18-	=18-	=18-
*	*	*	*	*lig	*	*	*	*	*	*	*ij	*	*	*	*
2A\	.	.	.	1A	-per-	no-	Sic	2r	.	.	.	2cc\	.	.	.
!	!	!	!	!	!	!	!	!LO:TX:t=P:problem=kreska pseudotaktowa	!	!	!	!	!	!	!
1F	Su-	-ma	-re	.	.	.	.	2f\	im-	in-	Du-	4a\	.	.	.
.	.	.	.	.	.	.	.	.	.	.	.	4b\	.	.	.
!	!	!	!	!LO:TX:t=P:problem=kreska pseudotaktowa	!	!	!	!	!	!	!	!	!	!	!
.	.	.	.	1G	.	.	.	1g	-plê	-fir-	-cto-	2cc\	.	.	.
!LO:TX:t=P:problem=kreska pseudotaktowa	!	!	!	!	!	!	!	!	!	!	!	!LO:TX:t=P:problem=kreska pseudotaktowa	!	!	!
2E\	-per-	no-	ſic	.	.	.	.	.	.	.	.	2g/	-ti-	-po-	-vi-
*	*	*	*	*Xlig	*	*	*	*	*	*	*	*	*	*	*
=19-	=19-	=19-	=19-	=19-	=19-	=19-	=19-	=19-	=19-	=19-	=19-	=19-	=19-	=19-	=19-
*	*	*	*	*lig	*	*	*	*	*	*	*	*	*	*	*
2.F\	-na	-ſtri	Te	1c	-na	-ſtri	Te	2a\	Su-	-ma	-re	2f/	-a	-ris	-o
.	.	.	.	.	.	.	.	(4a\	-per-	no-	Sic	1cc	gra-	cor-	prae-
!	!	!	!	!	!	!	!	!LO:TX:t=P:problem=kreska pseudotaktowa	!	!	!	!	!	!	!
4E\	.	.	.	.	.	.	.	4g\)	.	.	.	.	.	.	.
2.D/	gra-	cor-	prae-	1d	.	.	.	2f\	-na	-ſtri	te	.	.	.	.
!	!	!	!	!	!	!	!	!	!	!	!	!LO:TX:t=P:problem=kreska pseudotaktowa	!	!	!
.	.	.	.	.	.	.	.	4f\	gra-	cor-	prae-	2b\	-ti-	-po-	-vi-
!LO:TX:t=P:problem=kreska pseudotaktowa	!	!	!	!	!	!	!	!	!	!	!	!	!	!	!
4D/	-ti-	-po-	-vi-	.	.	.	.	4f\	-ti-	-po-	-vi-	.	.	.	.
!	!	!	!	!	!	!	!	!LO:TX:t=P:problem=kreska pseudotaktowa	!	!	!	!	!	!	!
*	*	*	*	*Xlig	*	*	*	*	*	*	*	*	*	*	*
=20-	=20-	=20-	=20-	=20-	=20-	=20-	=20-	=20-	=20-	=20-	=20-	=20-	=20-	=20-	=20-
1C	-a	-ris	-o	1G	gra-	cor-	prae-	2e\	-a	-riſ	-o	1cc	-a	-ris	-o
*	*	*	*	*	*	*	*	*	*	*	*Xij	*	*	*	*
.	.	.	.	.	.	.	.	2g\	q(u)ae	Vir-	Vi-	.	.	.	.
2r	.	.	.	1A	-ti-	-po-	-vi-	2f\	Tu	-tu-	-te-	0r	.	.	.
!LO:TX:t=P:problem=kreska pseudotaktowa	!	!	!	!	!	!	!	!LO:TX:t=P:problem=kreska pseudotaktowa	!	!	!	!	!	!	!
2D/	quae	Vir-	Vi-	.	.	.	.	2d\	Crê-	-te	-m(us)	.	.	.	.
=21-	=21-	=21-	=21-	=21-	=21-	=21-	=21-	=21-	=21-	=21-	=21-	=21-	=21-	=21-	=21-
!	!	!	!	!LO:TX:t=P:problem=kreska pseudotaktowa	!	!	!	!	!	!	!	!	!	!	!
2C/	Tu	-tu-	-tê-	1c	-a	-ris	-o	1e	-a-	fir-	o-	.	.	.	.
2AA/	Cre-	-te	-m(us)	.	.	.	.	.	.	.	.	.	.	.	.
!LO:TX:t=P:problem=kreska pseudotaktowa	!	!	!	!	!	!	!	!	!	!	!	!	!	!	!
*	*	*	*	*lig	*	*	*	*	*	*	*	*	*	*	*
!	!	!	!	!	!	!	!	!LO:LB:g=original	!	!	!	!	!	!	!
1BB	-a-	fir-	o-	1B	quae	Vir-	Vi-	1d	-ſti	-mans	-mne	2r	.	.	.
*	*	*	*	*	*	*	*	*	*	*	*	*custos:cc	*	*	*
!	!	!	!	!	!	!	!	!	!	!	!	!LO:TX:t=P:problem=kreska pseudotaktowa	!	!	!
.	.	.	.	.	.	.	.	.	.	.	.	2dd\	quae	Vir-	ui-
=22-	=22-	=22-	=22-	=22-	=22-	=22-	=22-	=22-	=22-	=22-	=22-	=22-	=22-	=22-	=22-
!	!	!	!	!LO:TX:t=P:problem=kreska pseudotaktowa	!	!	!	!	!	!	!	!LO:LB:g=original	!	!	!
2AA/	-ſti	-mans	-mne	1c	.	.	.	2.e\	pe-	per-	no-	2cc\	Tu	-tu-	-te-
*	*ij	*ij	*ij	*	*	*	*	*	*	*	*	*	*	*	*
!LO:TX:t=P:problem=kreska pseudotaktowa	!	!	!	!	!	!	!	!	!	!	!	!LO:TX:t=P:problem=kreska pseudotaktowa	!	!	!
2A\	quae	Vir-	Vi-	.	.	.	.	.	.	.	.	2a\	Cre-	-te	-m(us)
!	!	!	!	!	!	!	!	!LO:TX:t=P:problem=kreska pseudotaktowa	!	!	!	!	!	!	!
.	.	.	.	.	.	.	.	4e\	-cto-	-pe-	-xi-	.	.	.	.
*	*	*	*	*Xlig	*	*	*	*	*	*	*	*	*	*	*
2F\	Tu	-tu-	-tê-	1A	Tu	-tu-	-te-	2f\	-ra	-ti	-u(m)	2cc\	-a-	fir-	o-
2D\	Cre-	-te	-m(us)	.	.	.	.	4r	.	.	.	1dd\	.	.	.
!	!	!	!	!	!	!	!	!LO:TX:t=P:problem=kreska pseudotaktowa	!	!	!	!	!	!	!
.	.	.	.	.	.	.	.	4d\	quae	Vir-	Vi-	.	.	.	.
=23-	=23-	=23-	=23-	=23-	=23-	=23-	=23-	=23-	=23-	=23-	=23-	=23-	=23-	=23-	=23-
*	*	*	*	*lig	*	*	*	*	*	*	*	*	*	*	*
1E	-a-	fir-	o-	1G	Cre-	-te	-m(us)	2g\	Tu	-tu-	-tê-	.	.	.	.
!	!	!	!	!	!	!	!	!	!	!	!	!LO:TX:t=P:problem=kreska pseudotaktowa	!	!	!
.	.	.	.	.	.	.	.	2e\	Cre-	-te	-m(us)	(2cc\	-sti	-mans	-mne
!	!	!	!	!LO:TX:t=P:problem=kreska pseudotaktowa	!	!	!	!	!	!	!	!	!	!	!
2D/	-ſti	-mans	-mne	1F	.	.	.	1f	-a-	fir-	o-	2dd\)	.	.	.
!LO:TX:t=P:problem=kreska pseudotaktowa	!	!	!	!	!	!	!	!	!	!	!	!	!	!	!
2D/	quae	Vir-	Vi-	.	.	.	.	.	.	.	.	4a\	pe-	per-	no-
!	!	!	!	!	!	!	!	!	!	!	!	!LO:TX:t=P:problem=kreska pseudotaktowa	!	!	!
.	.	.	.	.	.	.	.	.	.	.	.	4b\	.	.	.
*	*	*	*	*Xlig	*	*	*	*	*	*	*	*	*	*	*
=24-	=24-	=24-	=24-	=24-	=24-	=24-	=24-	=24-	=24-	=24-	=24-	=24-	=24-	=24-	=24-
2C/	Tu	-tu-	-te-	1A	.	.	.	2e\	-ſti	-manſ	-mne	4cc\	.	.	.
.	.	.	.	.	.	.	.	.	.	.	.	4dd\	.	.	.
*	*	*	*	*	*	*	*	*	*ij	*ij	*ij	*	*	*	*
!	!	!	!	!	!	!	!	!LO:TX:t=P:problem=kreska pseudotaktowa	!	!	!	!	!	!	!
2AA/	Cre-	-te	-m(us)	.	.	.	.	2a\	quae	Vir-	Vi-	4ee\	.	.	.
!	!	!	!	!	!	!	!	!	!	!	!	!LO:TX:t=P:problem=kreska pseudotaktowa	!	!	!
.	.	.	.	.	.	.	.	.	.	.	.	4cc\	-cto-	-pe-	-xi-
!LO:TX:t=P:problem=kreska pseudotaktowa	!	!	!	!	!	!	!	!	!	!	!	!	!	!	!
1D	-a-	fir-	o-	1A	-a-	fir-	o-	2f\	Tu	-tu-	-te-	2dd\	-ra	-ti	-u(m)
.	.	.	.	.	.	.	.	2d\	Cre-	-te	-m(us)	4r	.	.	.
*	*	*	*	*	*	*	*	*	*	*	*	*	*ij	*ij	*ij
!	!	!	!	!	!	!	!	!	!	!	!	!LO:TX:t=P:problem=kreska pseudotaktowa	!	!	!
.	.	.	.	.	.	.	.	.	.	.	.	4a\	quae	Vir-	ui-
=25-	=25-	=25-	=25-	=25-	=25-	=25-	=25-	=25-	=25-	=25-	=25-	=25-	=25-	=25-	=25-
*	*	*	*	*lig	*	*	*	*	*	*	*	*	*	*	*
!	!	!	!	!	!	!	!	!LO:TX:t=P:problem=kreska pseudotaktowa	!	!	!	!	!	!	!
1GG	-ſti	-mans	-mne	1B-X	-ſti	-mans	-mne	1d	-a-	fir-	o-	2g/	Tu	-tu-	-te-
*	*Xij	*Xij	*Xij	*	*	*	*	*	*	*	*	*	*	*	*
.	.	.	.	.	.	.	.	.	.	.	.	2g/	Cre-	-te	-m(us)
*lig	*	*	*	*	*	*	*	*	*	*	*	*	*	*	*
!	!	!	!	!LO:TX:t=P:problem=kreska pseudotaktowa	!	!	!	!	!	!	!	!LO:TX:a:t=P:problem=# above	!	!	!
1D	pe-	per-	no-	1A	.	.	.	2d\	-ſti	-manſ	-mne	2f#X/	-a-	fir-	o-
*	*	*	*	*	*	*	*	*	*Xij	*Xij	*Xij	*	*	*	*
!	!	!	!	!	!	!	!	!	!	!	!	!LO:TX:t=P:problem=kreska pseudotaktowa	!	!	!
.	.	.	.	.	.	.	.	1d\	pê-	per-	no-	2f#/	-sti	-mans	-mne
*	*	*	*	*Xlig	*	*	*	*	*	*	*	*	*	*	*
=26-	=26-	=26-	=26-	=26-	=26-	=26-	=26-	=26-	=26-	=26-	=26-	=26-	=26-	=26-	=26-
!LO:TX:t=P:problem=kreska pseudotaktowa	!	!	!	!	!	!	!	!	!	!	!	!	!	!	!
1E	.	.	.	1G	pe-	pêr-	no-	.	.	.	.	2g/	pe-	per-	no-
.	.	.	.	.	.	.	.	2c#X/	.	.	.	2e/	.	.	.
*Xlig	*	*	*	*	*	*	*	*	*	*	*	*	*	*	*
2.D/	.	.	.	2F#X/	.	.	.	2.d\	.	.	.	2.a\	.	.	.
.	.	.	.	0.G/	-cto-	-pê-	-xi-	.	.	.	.	.	.	.	.
4D/	-cto-	-pe-	-xi-	.	.	.	.	4d\	-cto-	-pe-	-xi-	4a\	-cto-	-pe-	-xi-
=27-	=27-	=27-	=27-	=27-	=27-	=27-	=27-	=27-	=27-	=27-	=27-	=27-	=27-	=27-	=27-
!LO:N:vis=0	!	!	!	!	!	!	!	!LO:N:vis=0	!	!	!	!LO:N:vis=0	!	!	!
00GG;;	-ra	-ti	-u(m).	.	.	.	.	00d;;	-ra	-ti	-u(m)	00g;;	-ra	-ti	-u(m)
*	*	*	*	*	*	*	*	*	*	*	*	*	*Xij	*Xij	*Xij
=28-	=28-	=28-	=28-	=28-	=28-	=28-	=28-	=28-	=28-	=28-	=28-	=28-	=28-	=28-	=28-
.	.	.	.	.	.	.	.	.	.	.	.	.	.	.	.
!	!	!	!	!LO:N:vis=0	!	!	!	!	!	!	!	!	!	!	!
.	.	.	.	1.G;;	-ra	-ti	-u(m)	.	.	.	.	.	.	.	.
=29||-	=29||	=29||	=29||	=29||	=29||	=29||	=29||	=29||	=29||	=29||	=29||	=29||	=29||	=29||	=29||
*M2/1	*	*	*	*M2/1	*	*	*	*M2/1	*	*	*	*M2/1	*	*	*
*met(C|)	*	*	*	*met(C)	*	*	*	*met(C|)	*	*	*	*met(C|)	*	*	*
*	*	*	*	*lig	*	*	*	*	*	*	*	*	*	*	*
!LO:TX:t=P:problem=kreska pseudotaktowa	!	!	!	!LO:LB:g=original	!	!	!	!	!	!	!	!	!	!	!
!LO:LB:g=original	!	!	!	!	!	!	!	!	!	!	!	!	!	!	!
!LO:TX:t=P:problem=przed kluczem inicjał Q	!	!	!	!LO:TX:t=P:problem=przed kluczem inicjał Q	!	!	!	!LO:TX:t=P:problem=przed kluczem inicjał Q	!	!	!	!LO:TX:t=P:problem=przed kluczem inicjał Q	!	!	!
0r	.	.	.	1G	2 Qui	3 Tu	6 Per	00r	.	.	.	00r	.	.	.
!	!	!	!	!LO:TX:t=P:problem=kreska pseudotaktowa	!	!	!	!	!	!	!	!	!	!	!
.	.	.	.	1A	.	.	.	.	.	.	.	.	.	.	.
*	*	*	*	*Xlig	*	*	*	*	*	*	*	*	*	*	*
=30-	=30-	=30-	=30-	=30-	=30-	=30-	=30-	=30-	=30-	=30-	=30-	=30-	=30-	=30-	=30-
*lig	*	*	*	*lig	*	*	*	*	*	*	*	*	*	*	*
1C	2 Qui	3 Tu	6 Pêr	1G	di-	Se-	Te	.	.	.	.	.	.	.	.
1D	.	.	.	1F	.	.	.	.	.	.	.	.	.	.	.
*Xlig	*	*	*	*Xlig	*	*	*	*	*	*	*	*	*	*	*
=31-	=31-	=31-	=31-	=31-	=31-	=31-	=31-	=31-	=31-	=31-	=31-	=31-	=31-	=31-	=31-
!	!	!	!	!	!	!	!	!LO:TX:t=P:problem=kreska pseudotaktowa	!	!	!	!LO:TX:t=P:problem=kreska pseudotaktowa	!	!	!
2C/	di-	Sê-	Te	1G	-ce-	-pti-	ſci-	1r	.	.	.	0r	.	.	.
!LO:TX:t=P:problem=kreska pseudotaktowa	!	!	!	!	!	!	!	!	!	!	!	!	!	!	!
2BB/	-ce-	-pti-	Sci-	.	.	.	.	.	.	.	.	.	.	.	.
*	*	*	*	*	*	*	*	*lig	*	*	*	*	*	*	*
2AA/	-ris	-for-	a-	1A	-ris	-for-	-a	1c	2 Qui	3 Tu	6 Pêr	.	.	.	.
1C/	Pa-	-mis	-m(us)	.	.	.	.	.	.	.	.	.	.	.	.
=32-	=32-	=32-	=32-	=32-	=32-	=32-	=32-	=32-	=32-	=32-	=32-	=32-	=32-	=32-	=32-
*	*	*	*	*	*	*	*	*	*	*	*	*lig	*	*	*
!	!	!	!	!LO:TX:t=P:problem=kreska pseudotaktowa	!	!	!	!	!	!	!	!	!	!	!
.	.	.	.	1G	Pa-	-mis	-m(us)	1d	.	.	.	1g	2 Qui	3 Tu	6 Per
!LO:TX:t=P:problem=kreska pseudotaktowa	!	!	!	!	!	!	!	!	!	!	!	!	!	!	!
2BB/	-ra-	mü-	da	.	.	.	.	.	.	.	.	.	.	.	.
*	*	*	*	*lig	*	*	*	*Xlig	*	*	*	*	*	*	*
2AA/	-cli-	-ne-	Pa-	1c	-ra-	Mu-	da	1.c	di-	Se-	Te	1a	.	.	.
2C/	-t(us)	-re	-tre(m)	.	.	.	.	.	.	.	.	.	.	.	.
*	*	*	*	*	*	*	*	*	*	*	*	*Xlig	*	*	*
=33-	=33-	=33-	=33-	=33-	=33-	=33-	=33-	=33-	=33-	=33-	=33-	=33-	=33-	=33-	=33-
2.GG/	di-	Se-	Sci-	1d	.	.	.	.	.	.	.	1.g	di-	Se-	Te
!	!	!	!	!	!	!	!	!LO:TX:t=P:problem=kreska pseudotaktowa	!	!	!	!	!	!	!
.	.	.	.	.	.	.	.	2B/	-ce-	-pti-	ſci-	.	.	.	.
!LO:TX:t=P:problem=kreska pseudotaktowa	!	!	!	!	!	!	!	!	!	!	!	!	!	!	!
4GG/	-ce-	-pti-	-a-	.	.	.	.	.	.	.	.	.	.	.	.
*	*	*	*	*Xlig	*	*	*	*	*	*	*	*	*	*	*
2C/	-ris	-for-	-m(us)	1c	-cli-	-ne-	Pa-	2c/	-ris	-for-	-a-	.	.	.	.
!	!	!	!	!	!	!	!	!	!	!	!	!LO:TX:t=P:problem=kreska pseudotaktowa	!	!	!
2D\	Pa-	-mis	da	.	.	.	.	2A/	Pa-	-mis	-m(us)	2f/	-ce-	-pti-	ſci-
=34-	=34-	=34-	=34-	=34-	=34-	=34-	=34-	=34-	=34-	=34-	=34-	=34-	=34-	=34-	=34-
!	!	!	!	!LO:TX:t=P:problem=kreska pseudotaktowa	!	!	!	!	!	!	!	!	!	!	!
2E\	-ra-	Mü-	Pa-	1c	-t(us)	-re	-tre(m)	2e\	-ra-	Mu-	da	2g\	-ris	-for-	a-
2F\	-cli-	-ne-	.	.	.	.	.	2c\	-cli-	-ne-	Pa-	2a/	Pa-	-mis	-m(us)
!LO:TX:t=P:problem=kreska pseudotaktowa	!	!	!	!	!	!	!	!LO:TX:t=P:problem=kreska pseudotaktowa	!	!	!	!	!	!	!
0C	-t(us)	-re	-tre(m)	1c	al-	di-	No-	1e	-t(us)	-re	-trê(m)	2.g/	-ra-	mu-	da
.	.	.	.	.	.	.	.	.	.	.	.	4f/	-cli-	-ne-	Pa-
=35-	=35-	=35-	=35-	=35-	=35-	=35-	=35-	=35-	=35-	=35-	=35-	=35-	=35-	=35-	=35-
!	!	!	!	!	!	!	!	!LO:LB:g=original	!	!	!	!LO:TX:t=P:problem=kreska pseudotaktowa	!	!	!
.	.	.	.	1G	-tiſ-	-gi-	-ſca-	2r	.	.	.	1e	-t(us)	-re	-tre(m)
!	!	!	!	!	!	!	!	!LO:TX:t=P:problem=kreska pseudotaktowa	!	!	!	!	!	!	!
.	.	.	.	.	.	.	.	2g\	al-	di-	No-	.	.	.	.
1rD	.	.	.	1A	-si-	-t(us)	-m(us)	1c	-tiſ-	-gi-	-ſca-	2r	.	.	.
.	.	.	.	.	.	.	.	.	.	.	.	2cc\	al-	Di-	No-
=36-	=36-	=36-	=36-	=36-	=36-	=36-	=36-	=36-	=36-	=36-	=36-	=36-	=36-	=36-	=36-
!LO:TX:t=P:problem=kreska pseudotaktowa	!	!	!	!LO:TX:t=P:problem=kreska pseudotaktowa	!	!	!	!	!	!	!	!	!	!	!
!	!	!	!	!	!	!	!	!	!	!	!	!LO:LB:g=original	!	!	!
1G	al-	Di-	no-	1B	-mi	Pa-	at-	2.d\	.	-t(us)	-m(us)	1g	.	-gi-	-ſca-
!	!	!	!	!	!	!	!	!LO:TX:t=P:problem=kreska pseudotaktowa	!	!	!	!	!	!	!
.	.	.	.	.	.	.	.	4e\	.	.	.	.	.	.	.
*	*	*	*	*lig	*	*	*	*	*	*	*	*	*	*	*
1D	-tiſ-	-gi-	-ſca-	1c	do-	ter-	-q(ue)	4f\	.	.	.	2.a\	-tiſ-	-t(us)	-m(us)
.	.	.	.	.	.	.	.	4g\	.	.	.	.	.	.	.
.	.	.	.	.	.	.	.	4a\	.	.	.	.	.	.	.
!	!	!	!	!	!	!	!	!LO:TX:t=P:problem=kreska pseudotaktowa	!	!	!	!LO:TX:t=P:problem=kreska pseudotaktowa	!	!	!
.	.	.	.	.	.	.	.	4f\	si-	.	.	4b\	.	Pa-	.
=37-	=37-	=37-	=37-	=37-	=37-	=37-	=37-	=37-	=37-	=37-	=37-	=37-	=37-	=37-	=37-
!LO:TX:t=P:problem=kreska pseudotaktowa	!	!	!	!	!	!	!	!	!	!	!	!	!	!	!
1E	-si-	-t(us)	-m(us)	1B	.	-nae	.	2g\	-mi	.	.	2cc\	-si-	-ter-	at-
.	.	.	.	.	.	.	.	4G/	al-	di-	no-	2cc\	-mi	-nae	-q(ue)
!	!	!	!	!	!	!	!	!LO:TX:t=P:problem=kreska pseudotaktowa	!	!	!	!	!	!	!
.	.	.	.	.	.	.	.	4A/	.	.	.	.	.	.	.
*	*	*	*	*Xlig	*	*	*	*	*	*	*	*	*	*	*
!	!	!	!	!LO:TX:t=P:problem=kreska pseudotaktowa	!	!	!	!	!	!	!	!	!	!	!
2.G\	-mi	Pa-	at-	1d	-nu(m)	dex-	-Fi-	4B/	.	.	.	2r	.	.	.
.	.	.	.	.	.	.	.	4c/	.	.	.	.	.	.	.
*	*	*	*	*	*	*	*	*	*	*	*	*	*	*ij	*ij
!	!	!	!	!	!	!	!	!LO:TX:t=P:problem=kreska pseudotaktowa	!	!	!	!LO:TX:t=P:problem=kreska pseudotaktowa	!	!	!
.	.	.	.	.	.	.	.	2d\	.	.	.	2dd\	al-	Di-	No-
4F\	.	.	-q(ue)	.	.	.	.	.	.	.	.	.	.	.	.
=38-	=38-	=38-	=38-	=38-	=38-	=38-	=38-	=38-	=38-	=38-	=38-	=38-	=38-	=38-	=38-
2E\	.	-ter-	no-	1e	DE-	-te-	-li-	2c/	-tiſ-	-gi-	-ſca-	1g	-tiſ-	-gi-	-sca-
!LO:TX:t=P:problem=kreska pseudotaktowa	!	!	!	!	!	!	!	!LO:TX:t=P:problem=kreska pseudotaktowa	!	!	!	!	!	!	!
2C/	al-	-nae	-ſca-	.	.	.	.	2e\	-si-	-t(us)	-m(us)	.	.	.	.
!	!	!	!	!LO:TX:t=P:problem=kreska pseudotaktowa	!	!	!	!	!	!	!	!	!	!	!
2F\	-tiſ-	Pa-	-m(us)	1d	-I	-rae	-u(m)	2a\	-mi	Pa-	.	2a\	-si-	-t(us)	-m(us)
!	!	!	!	!	!	!	!	!	!	!	!	!LO:TX:t=P:problem=kreska pseudotaktowa	!	!	!
2G\	-si-	-ter-	at-	.	.	.	.	1g\	Do-	-ter-	at-	2b\	-mi	Pa-	at-
=39-	=39-	=39-	=39-	=39-	=39-	=39-	=39-	=39-	=39-	=39-	=39-	=39-	=39-	=39-	=39-
2A\	-mi	-nae	-q(ue)	1c	fons	Tu	Te	.	.	.	.	2cc\	do-	-ter-	-q(ue)
*	*	*	*	*	*	*	*	*	*	*	*	*	*	*	*Xij
!LO:TX:t=P:problem=kreska pseudotaktowa	!	!	!	!	!	!	!	!LO:TX:t=P:problem=kreska pseudotaktowa	!	!	!	!	!	!	!
2A\	do-	.	.	.	.	.	.	2f\	.	-nae	-q(ue)	1cc	-nu(m)	-nae dex-	-Fi-
*	*	*	*	*lig	*	*	*	*	*	*	*	*	*	*Xij	*
2.G\	-nu(m)	dex-	Fi-	1d	Vi-	ri-	V-	2.g\	-nu(m)	dex-	-Fi-	.	.	.	.
.	.	.	.	.	.	.	.	.	.	.	.	2b\	DE-	-te-	-li-
4G\	DE-	-te-	-li-	.	.	.	.	4g\	DE-	-te-	-li-	.	.	.	.
=40-	=40-	=40-	=40-	=40-	=40-	=40-	=40-	=40-	=40-	=40-	=40-	=40-	=40-	=40-	=40-
!LO:TX:t=P:problem=kreska pseudotaktowa	!	!	!	!	!	!	!	!LO:TX:t=P:problem=kreska pseudotaktowa	!	!	!	!LO:TX:t=P:problem=kreska pseudotaktowa	!	!	!
!LO:LB:g=original	!	!	!	!	!	!	!	!	!	!	!	!	!	!	!
1C	-I	-rae	-u(m)	1c	.	.	.	1e	-I	-rae	-u(m)	1cc	-I	-rae	-u(m)
*	*	*	*	*Xlig	*	*	*	*	*	*	*	*	*	*	*
!	!	!	!	!LO:TX:t=P:problem=kreska pseudotaktowa	!	!	!	!	!	!	!	!	!	!	!
00r	.	.	.	1d	-v(us)	-te	tri-	1f	fons	Tu	Te	0r	.	.	.
=41-	=41-	=41-	=41-	=41-	=41-	=41-	=41-	=41-	=41-	=41-	=41-	=41-	=41-	=41-	=41-
!	!	!	!	!	!	!	!	!LO:TX:t=P:problem=kreska pseudotaktowa	!	!	!	!	!	!	!
.	.	.	.	1e	.	.	.	(1g	Vi-	ri-	u-	.	.	.	.
*	*	*	*	*lig	*	*	*	*	*	*	*	*	*	*	*
.	.	.	.	1c	i-	pro-	-us-	2a\)	.	.	.	2r	.	.	.
!	!	!	!	!	!	!	!	!LO:TX:t=P:problem=kreska pseudotaktowa	!	!	!	!LO:TX:t=P:problem=kreska pseudotaktowa	!	!	!
.	.	.	.	.	.	.	.	2e\	-v(us)	-tè	tri-	2cc\	fons	Tu	Te
=42-	=42-	=42-	=42-	=42-	=42-	=42-	=42-	=42-	=42-	=42-	=42-	=42-	=42-	=42-	=42-
*	*	*	*	*custos:A	*	*	*	*	*	*	*	*	*	*	*
.	.	.	.	1B	.	.	.	2g\	i-	pro-	-(us)-	2dd\	Vi-	ri-	Vtri-
!	!	!	!	!	!	!	!	!LO:TX:t=P:problem=kreska pseudotaktowa	!	!	!	!LO:TX:t=P:problem=kreska pseudotaktowa	!	!	!
.	.	.	.	.	.	.	.	2g\	-gnis	-miſ-	-q(ue)	2dd\	-v(us)	-te	-(us)-
*	*	*	*	*Xlig	*	*	*	*	*	*	*	*	*	*	*
*	*	*	*	*lig	*	*	*	*	*	*	*	*	*	*	*
!LO:TX:t=P:problem=kreska pseudotaktowa	!	!	!	!LO:LB:g=original	!	!	!	!	!	!	!	!	!	!	!
00r	.	.	.	1A	-gnis	-miſ-	-q(ue)	4c\	cha-	-su(m)	Spi-	2ee\	i-	pro-	-q(ue)
.	.	.	.	.	.	.	.	4d\	.	.	.	.	.	.	.
.	.	.	.	.	.	.	.	4e\	.	.	.	(1cc\	-gnis	-miſ-	Spi-
!	!	!	!	!	!	!	!	!LO:TX:t=P:problem=kreska pseudotaktowa	!	!	!	!	!	!	!
.	.	.	.	.	.	.	.	4f\	.	.	.	.	.	.	.
=43-	=43-	=43-	=43-	=43-	=43-	=43-	=43-	=43-	=43-	=43-	=43-	=43-	=43-	=43-	=43-
!	!	!	!	!LO:TX:t=P:problem=kreska pseudotaktowa	!	!	!	!	!	!	!	!	!	!	!
.	.	.	.	1G	.	.	.	2g\	.	.	.	.	.	.	.
!	!	!	!	!	!	!	!	!	!	!	!	!LO:TX:t=P:problem=kreska pseudotaktowa	!	!	!
.	.	.	.	.	.	.	.	2d\	.	pa-	.	2b\)	.	-su(m)	.
*	*	*	*	*Xlig	*	*	*	*	*	*	*	*	*	*	*
*	*	*	*	*lig	*	*	*	*	*	*	*	*	*	*	*
.	.	.	.	1c	cha-	-su(m)	Spi-	4e\	.	.	.	2.cc\	cha-	Pa-	-ri-
.	.	.	.	.	.	.	.	4f\	.	.	.	.	.	.	.
.	.	.	.	.	.	.	.	1g\	.	.	.	.	.	.	.
!	!	!	!	!	!	!	!	!	!	!	!	!LO:TX:t=P:problem=kreska pseudotaktowa	!	!	!
.	.	.	.	.	.	.	.	.	.	.	.	4b\	-ri-	.	.
=44-	=44-	=44-	=44-	=44-	=44-	=44-	=44-	=44-	=44-	=44-	=44-	=44-	=44-	=44-	=44-
.	.	.	.	1d	.	.	.	.	.	.	.	(1a	-taſ	-tris	-tu(m)
!	!	!	!	!	!	!	!	!LO:TX:t=P:problem=kreska pseudotaktowa	!	!	!	!	!	!	!
.	.	.	.	.	.	.	.	2f#X\	-ri-	.	-ri-	.	.	.	.
*	*	*	*	*Xlig	*	*	*	*	*	*	*	*	*	*	*
2r	.	.	.	1G	-ri-	Pa-	-ri-	1g	-tas	-tris	-tu(m)	2b\)	.	.	.
!LO:TX:t=P:problem=kreska pseudotaktowa	!	!	!	!	!	!	!	!	!	!	!	!LO:TX:t=P:problem=kreska pseudotaktowa	!	!	!
2C/	Et	Ser-	Cre-	.	.	.	.	.	.	.	.	2e/	et	ſer-	Cre-
=45-	=45-	=45-	=45-	=45-	=45-	=45-	=45-	=45-	=45-	=45-	=45-	=45-	=45-	=45-	=45-
*	*	*	*	*	*	*	*	*custos:c	*	*	*	*	*	*	*
!	!	!	!	!	!	!	!	!LO:TX:t=P:problem=kreska pseudotaktowa	!	!	!	!	!	!	!
!	!	!	!	!LO:TX:t=P:problem=kreska pseudotaktowa	!	!	!	!	!	!	!	!	!	!	!
2F\	ſpi-	-mo-	-da-	1A	-tas	-tris	-tu(m)	1r	.	.	.	2a\	Spi-	-mo-	-da-
2F\	-ri-	-ne	-m(us)	.	.	.	.	.	.	.	.	2a\	-ri-	-ne	-m(us)
!	!	!	!	!LO:TX:t=P:problem=kreska pseudotaktowa	!	!	!	!	!	!	!	!	!	!	!
!	!	!	!	!	!	!	!	!LO:PB:g=original	!	!	!	!	!	!	!
2E\	-ta-	di-	o-	1c	et	ſer-	Cre-	2r	.	.	.	1g	-ta-	di-	o-
!LO:TX:t=P:problem=kreska pseudotaktowa	!	!	!	!	!	!	!	!LO:TX:t=P:problem=kreska pseudotaktowa	!	!	!	!	!	!	!
2C/	-lis	-tans	-mni	.	.	.	.	2c/	fons	ſer-	Cre-	.	.	.	.
=46-	=46-	=46-	=46-	=46-	=46-	=46-	=46-	=46-	=46-	=46-	=46-	=46-	=46-	=46-	=46-
*	*	*	*	*lig	*	*	*	*	*	*	*	*	*	*	*
!	!	!	!	!	!	!	!	!	!	!	!	!LO:TX:t=P:problem=kreska pseudotaktowa	!	!	!
2.E\	Vn-	gut-	tem-	1B	ſpi-	-mo-	-da-	2g\	Vi-	-mo-	-da-	1e	-lis	-tanſ	-mni
.	.	.	.	.	.	.	.	2g\	-v(us)	-ne	-m(us)	.	.	.	.
4D/	-cti-	-tu-	-po-	.	.	.	.	.	.	.	.	.	.	.	.
!LO:TX:t=P:problem=kreska pseudotaktowa	!	!	!	!	!	!	!	!	!	!	!	!	!	!	!
1C	-o	-ra	-re	1c	.	.	.	2.e\	i-	di-	o-	2r	.	.	.
!	!	!	!	!	!	!	!	!	!	!	!	!LO:TX:t=P:problem=kreska pseudotaktowa	!	!	!
.	.	.	.	.	.	.	.	.	.	.	.	2g/	et	ſer-	Cre-
!	!	!	!	!	!	!	!	!LO:TX:t=P:problem=kreska pseudotaktowa	!	!	!	!	!	!	!
.	.	.	.	.	.	.	.	4d\	.	.	.	.	.	.	.
*	*	*	*	*Xlig	*	*	*	*	*	*	*	*	*	*	*
=47-	=47-	=47-	=47-	=47-	=47-	=47-	=47-	=47-	=47-	=47-	=47-	=47-	=47-	=47-	=47-
!	!	!	!	!LO:TX:t=P:problem=kreska pseudotaktowa	!	!	!	!	!	!	!	!	!	!	!
1rD	.	.	.	1A	-ri-	-ne	-m(us)	1c	-gnis	-tanſ	-mni	2cc\	Spi-	-mo-	-da-
*	*	*	*	*	*	*	*	*	*	*	*	*custos:b	*	*	*
!	!	!	!	!	!	!	!	!	!	!	!	!LO:TX:t=P:problem=kreska pseudotaktowa	!	!	!
.	.	.	.	.	.	.	.	.	.	.	.	2cc\	-ri-	-ne	-m(us)
*	*	*ij	*ij	*lig	*	*	*	*	*	*	*	*	*	*	*
!	!	!	!	!	!	!	!	!	!	!	!	!LO:PB:g=original	!	!	!
1GG	et	Ser-	Cre-	1G	-ta-	di-	o-	2r	.	.	.	(2b\	-ta-	di-	o-
*	*	*	*	*	*	*	*	*	*ij	*ij	*ij	*	*	*	*
!	!	!	!	!	!	!	!	!LO:TX:t=P:problem=kreska pseudotaktowa	!	!	!	!LO:TX:t=P:problem=kreska pseudotaktowa	!	!	!
.	.	.	.	.	.	.	.	2d\	fons	ſer-	Cre-	2g/)	.	.	.
=48-	=48-	=48-	=48-	=48-	=48-	=48-	=48-	=48-	=48-	=48-	=48-	=48-	=48-	=48-	=48-
2D/	Spi-	-mo-	-da-	1F	.	.	.	2fny\	Vi-	-mo-	-da-	2a\	-lis	-tans	-mni
!LO:TX:t=P:problem=kreska pseudotaktowa	!	!	!	!	!	!	!	!	!	!	!	!	!	!	!
2D/	-ri-	-ne	-m(us)	.	.	.	.	2f\	-v(us)	-ne	-m(us)	4r	.	.	.
!	!	!	!	!	!	!	!	!	!	!	!	!LO:TX:t=P:problem=kreska pseudotaktowa	!	!	!
.	.	.	.	.	.	.	.	.	.	.	.	4a\	et	Ser-	Cre-
*	*	*	*	*Xlig	*	*	*	*	*	*	*	*	*	*	*
2C/	-ta-	di-	o-	1A	-lis	-tanſ	-mni	2e\	i-	di-	o-	2cc\	Spi-	-mo-	-da-
!LO:TX:t=P:problem=kreska pseudotaktowa	!	!	!	!	!	!	!	!LO:TX:t=P:problem=kreska pseudotaktowa	!	!	!	!LO:TX:t=P:problem=kreska pseudotaktowa	!	!	!
2AA/	-lis	-tans	-mni	.	.	.	.	2c/	-gnis	-tanſ	-mni	2cc\	-ri-	-ne	-m(us)
*	*	*	*	*	*	*	*	*	*Xij	*Xij	*Xij	*	*	*	*
=49-	=49-	=49-	=49-	=49-	=49-	=49-	=49-	=49-	=49-	=49-	=49-	=49-	=49-	=49-	=49-
*	*	*	*	*lig	*	*	*	*	*	*	*	*	*	*	*
2.D/	Spi-	gut-	tem-	1A	Vn-	gut-	tem-	4d\	cha-	gut-	tem-	4f/	-ta-	di-	o-
.	.	.	.	.	.	.	.	4e\	.	.	.	4g/	.	.	.
.	.	.	.	.	.	.	.	4f\	.	.	.	2.a\	-lis	-tans	-mni
!	!	!	!	!	!	!	!	!LO:TX:t=P:problem=kreska pseudotaktowa	!	!	!	!	!	!	!
4C/	-ri-	-tu-	-po-	.	.	.	.	4e\	.	.	.	.	.	.	.
!	!	!	!	!LO:TX:t=P:problem=kreska pseudotaktowa	!	!	!	!	!	!	!	!	!	!	!
!	!	!	!	!LO:TX:a:t=P:problem=♭ above	!	!	!	!	!	!	!	!	!	!	!
2BB-X/	-ta-	-ra	-re	1B-X	.	.	.	2.d\	.	.	.	.	.	.	.
*	*	*Xij	*Xij	*	*	*	*	*	*	*	*	*	*	*	*
.	.	.	.	.	.	.	.	.	.	.	.	4g/	.	.	.
!LO:TX:t=P:problem=kreska pseudotaktowa	!	!	!	!	!	!	!	!	!	!	!	!	!	!	!
2GG/	-lis	di-	o-	.	.	.	.	.	.	.	.	1g\	Vn-	gut-	tem-
!	!	!	!	!	!	!	!	!LO:TX:t=P:problem=kreska pseudotaktowa	!	!	!	!	!	!	!
.	.	.	.	.	.	.	.	4d\	-ri-	-tu-	-po-	.	.	.	.
*	*	*	*	*Xlig	*	*	*	*	*	*	*	*	*	*	*
=50-	=50-	=50-	=50-	=50-	=50-	=50-	=50-	=50-	=50-	=50-	=50-	=50-	=50-	=50-	=50-
*lig	*	*	*	*	*	*	*	*	*	*	*	*	*	*	*
1D	Vn-	-tans	-mni	1A	.	.	.	2d\	-tas	-ra	-re	.	.	.	.
!	!	!	!	!	!	!	!	!	!	!	!	!LO:TX:t=P:problem=kreska pseudotaktowa	!	!	!
.	.	.	.	.	.	.	.	1d	i-	di-	o-	2f#X/	-cti-	-tu-	-po-
1E	.	.	.	1.G	.	.	.	.	.	.	.	2g/	-o	-ra	-re
!	!	!	!	!	!	!	!	!LO:TX:t=P:problem=kreska pseudotaktowa	!	!	!	!	!	!	!
!	!	!	!	!	!	!	!	!LO:TX:a:t=P:problem=# above	!	!	!	!	!	!	!
.	.	.	.	.	.	.	.	2c#X/	-gnis	-tans	-mni	2e/	Vn-	.	.
*Xlig	*	*	*	*	*	*	*	*	*	*	*	*	*	*	*
=51-	=51-	=51-	=51-	=51-	=51-	=51-	=51-	=51-	=51-	=51-	=51-	=51-	=51-	=51-	=51-
2.D/	-cti-	gut-	têm-	.	.	.	.	2.d\	cha-	gut-	tem-	2.a\	.	gut-	tem-
!	!	!	!	!LO:TX:a:t=P:problem=# above	!	!	!	!	!	!	!	!	!	!	!
.	.	.	.	2F#X/	-cti-	-tu-	-po-	.	.	.	.	.	.	.	.
4D/	-o	-tu-	-po-	.	.	.	.	4d\	-ri-	-tu-	-po-	4a\	-cti-	-tu-	-po-
!LO:N:vis=0	!	!	!	!LO:N:vis=0	!	!	!	!LO:N:vis=0	!	!	!	!LO:N:vis=0	!	!	!
1GG;;	.	-ra	-re	1G;;	-o	-ra	-re	1d;<	-tas	-ra	-re	1b;;	-o	-ra	-re
=52||	=52||	=52||	=52||	=52||	=52||	=52||	=52||	=52||	=52||	=52||	=52||	=52||	=52||	=52||	=52||
*M3/1	*	*	*	*M3/1	*	*	*	*M3/1	*	*	*	*M3/1	*	*	*
!LO:TX:t=P:problem=przed kluczem inicjał D	!	!	!	!LO:TX:t=P:problem=przed kluczem inicjał D	!	!	!	!LO:TX:t=P:problem=przed kluczem inicjał D	!	!	!	!LO:TX:t=P:problem=przed kluczem inicjał D	!	!	!
1G	7 De-	.	.	1d	7 De-	.	.	1g	De-	.	.	1b	De-	.	.
1.G	-o	.	.	1.d	-o	.	.	1.g	-o	.	.	1.b	-o	.	.
!LO:TX:t=P:problem=kreska pseudotaktowa	!	!	!	!LO:TX:t=P:problem=kreska pseudotaktowa	!	!	!	!LO:TX:t=P:problem=kreska pseudotaktowa	!	!	!	!LO:TX:t=P:problem=kreska pseudotaktowa	!	!	!
2G\	Pa-	.	.	2d\	Pa-	.	.	2g\	Pa-	.	.	2b\	Pa-	.	.
=53-	=53-	=53-	=53-	=53-	=53-	=53-	=53-	=53-	=53-	=53-	=53-	=53-	=53-	=53-	=53-
!LO:PB:g=original	!	!	!	!	!	!	!	!LO:TX:a:t=P:problem=# above	!	!	!	!	!	!	!
0D	-tri	.	.	0d	-tri	.	.	0f#X	-tri	.	.	0a	-tri	.	.
*	*	*	*	*custos:e	*	*	*	*	*	*	*	*	*	*	*
!LO:TX:t=P:problem=kreska pseudotaktowa	!	!	!	!LO:TX:t=P:problem=kreska pseudotaktowa	!	!	!	!	!	!	!	!	!	!	!
!	!	!	!	!	!	!	!	!LO:TX:t=P:problem=kreska pseudotaktowa	!	!	!	!LO:TX:t=P:problem=kreska pseudotaktowa	!	!	!
1G	Sit	.	.	1d	Sit	.	.	1g	Sit	.	.	1b	Sit	.	.
=54-	=54-	=54-	=54-	=54-	=54-	=54-	=54-	=54-	=54-	=54-	=54-	=54-	=54-	=54-	=54-
!	!	!	!	!LO:PB:g=original	!	!	!	!LO:LB:g=original	!	!	!	!	!	!	!
0C	glo-	.	.	0e	glo-	.	.	0g	glo-	.	.	0cc	glo-	.	.
!	!	!	!	!	!	!	!	!LO:TX:a:t=P:problem=# above	!	!	!	!	!	!	!
1D	-ri-	.	.	1d	-ri-	.	.	1f#X	-ri-	.	.	1a	-ri-	.	.
=55-	=55-	=55-	=55-	=55-	=55-	=55-	=55-	=55-	=55-	=55-	=55-	=55-	=55-	=55-	=55-
!LO:TX:t=P:problem=kreska pseudotaktowa	!	!	!	!LO:TX:t=P:problem=kreska pseudotaktowa	!	!	!	!LO:TX:t=P:problem=kreska pseudotaktowa	!	!	!	!LO:TX:t=P:problem=kreska pseudotaktowa	!	!	!
0.GG	-a	.	.	0.d	-a	.	.	0.g	-a	.	.	0.b	-a	.	.
=56-	=56-	=56-	=56-	=56-	=56-	=56-	=56-	=56-	=56-	=56-	=56-	=56-	=56-	=56-	=56-
!	!	!	!	!	!	!	!	!	!	!	!	!LO:LB:g=original	!	!	!
1G	et	e-	.	1d	êt	e-	.	1g	et	e-	.	1b	et	e-	.
1G	Fi-	-i(us)	.	1d	Fi-	-i(us)	.	1g	Fi-	-i(us)-	.	1b	Fi-	-i(us)-	.
!LO:TX:t=P:problem=kreska pseudotaktowa	!	!	!	!LO:TX:t=P:problem=kreska pseudotaktowa	!	!	!	!LO:TX:t=P:problem=kreska pseudotaktowa	!	!	!	!LO:TX:t=P:problem=kreska pseudotaktowa	!	!	!
1A	-li-	q(ue)	.	1c	-li-	q(ue)	.	1e	-li-	-q(ue)	.	1a	-li-	-q(ue)	.
=57-	=57-	=57-	=57-	=57-	=57-	=57-	=57-	=57-	=57-	=57-	=57-	=57-	=57-	=57-	=57-
0E	-o	So-	.	0B	-o	So-	.	0e	-o	So-	.	0g	-o	So-	.
2F\	qui	-li	.	2A/	qui	-li	.	2d\	qui	-li	.	2a\	qui	-li	.
!LO:TX:t=P:problem=kreska pseudotaktowa	!	!	!	!LO:TX:t=P:problem=kreska pseudotaktowa	!	!	!	!LO:TX:t=P:problem=kreska pseudotaktowa	!	!	!	!LO:TX:t=P:problem=kreska pseudotaktowa	!	!	!
2F\	à	.	.	2A/	à	.	.	2d\	a	.	.	2a\	a	.	.
=58-	=58-	=58-	=58-	=58-	=58-	=58-	=58-	=58-	=58-	=58-	=58-	=58-	=58-	=58-	=58-
0E	mor-	Fi-	.	0B	Mor-	Fi-	.	0e	Mor-	Fi-	.	0a	Mor-	Fi-	.
!	!	!	!	!	!	!	!	!	!	!	!	!LO:TX:a:t=P:problem=# above	!	!	!
1E	-tu-	-li-	.	1B	-tu-	-li-	.	1e	-tu-	-li-	.	1g#X	-tu-	-li-	.
=59-	=59-	=59-	=59-	=59-	=59-	=59-	=59-	=59-	=59-	=59-	=59-	=59-	=59-	=59-	=59-
!LO:TX:t=P:problem=kreska pseudotaktowa	!	!	!	!LO:TX:t=P:problem=kreska pseudotaktowa	!	!	!	!LO:TX:t=P:problem=kreska pseudotaktowa	!	!	!	!LO:TX:t=P:problem=kreska pseudotaktowa	!	!	!
0.AA	-is	-o	.	0.A	-is	-o	.	0.c	-is	-o	.	0.a	-iſ	-o	.
=60-	=60-	=60-	=60-	=60-	=60-	=60-	=60-	=60-	=60-	=60-	=60-	=60-	=60-	=60-	=60-
1FF	ſur-	cu(m)	.	1F	ſur-	cu(m)	.	1a	ſur-	cu(m)	.	1cc	ſur-	cu(m)	.
2FF/	-re-	Spi-	.	2A/	-re-	Spi-	.	1.a	-re-	Spi-	.	1.cc	-re-	Spi-	.
2GG/	.	.	.	2B\	.	.	.	.	.	.	.	.	.	.	.
2AA/	.	.	.	2c\	.	.	.	.	.	.	.	.	.	.	.
!LO:TX:t=P:problem=kreska pseudotaktowa	!	!	!	!LO:TX:t=P:problem=kreska pseudotaktowa	!	!	!	!	!	!	!	!	!	!	!
2BB/	.	.	.	2d\	.	.	.	4g\	.	.	.	4b\	.	.	.
!	!	!	!	!	!	!	!	!LO:TX:t=P:problem=kreska pseudotaktowa	!	!	!	!LO:TX:t=P:problem=kreska pseudotaktowa	!	!	!
.	.	.	.	.	.	.	.	4fny\	.	.	.	4a\	.	.	.
=61-	=61-	=61-	=61-	=61-	=61-	=61-	=61-	=61-	=61-	=61-	=61-	=61-	=61-	=61-	=61-
0C	.	.	.	0e	-xit	-ri-	.	0e	.	.	.	0gny	.	.	.
1AA	-xit	-ri-	.	1c	ac	-tu	.	1e	-xit	-ri-	.	1a	-xit	-ri-	.
=62-	=62-	=62-	=62-	=62-	=62-	=62-	=62-	=62-	=62-	=62-	=62-	=62-	=62-	=62-	=62-
!LO:TX:t=P:problem=1D poprawione na 0D	!	!	!	!	!	!	!	!	!	!	!	!	!	!	!
0D	ac	-tu	.	0d	.	.	.	0f	ac	-tu	.	0a	ac	-tu	.
!LO:TX:t=P:problem=kreska pseudotaktowa	!	!	!	!LO:TX:t=P:problem=kreska pseudotaktowa	!	!	!	!LO:TX:t=P:problem=kreska pseudotaktowa	!	!	!	!LO:TX:t=P:problem=kreska pseudotaktowa	!	!	!
1AA	Pa-	Pa-	.	1c	Pa-	Pa-	.	1e	Pa-	Pa-	.	1a	Pa-	Pa-	.
=63-	=63-	=63-	=63-	=63-	=63-	=63-	=63-	=63-	=63-	=63-	=63-	=63-	=63-	=63-	=63-
0BB-X	-ra-	-ra-	.	0B-X	-ra-	-ra-	.	0d	-ra-	-ra-	.	0f	-ra-	-ra-	.
1C	-cli-	-cli-	.	1G	-cli-	-cli-	.	1d	-cli-	-cli-	.	1e	-cli-	-cli-	.
=64-	=64-	=64-	=64-	=64-	=64-	=64-	=64-	=64-	=64-	=64-	=64-	=64-	=64-	=64-	=64-
!LO:TX:t=P:problem=kreska pseudotaktowa	!	!	!	!LO:TX:t=P:problem=kreska pseudotaktowa	!	!	!	!LO:TX:t=P:problem=kreska pseudotaktowa	!	!	!	!LO:TX:t=P:problem=kreska pseudotaktowa	!	!	!
0.FF	-to	-to	.	0.A	-to	-to	.	0.c	-to	-to	.	0.f	-to	-to	.
=65-	=65-	=65-	=65-	=65-	=65-	=65-	=65-	=65-	=65-	=65-	=65-	=65-	=65-	=65-	=65-
1F	in	.	.	1f	in	.	.	1a	in	.	.	1cc	in	.	.
1C	Se-	.	.	1e	Se-	.	.	1g	Se-	.	.	1cc	ſe-	.	.
!LO:TX:t=P:problem=kreska pseudotaktowa	!	!	!	!	!	!	!	!	!	!	!	!LO:TX:t=P:problem=kreska pseudotaktowa	!	!	!
1D	-cu-	.	.	1d	-cu-	.	.	1f	-cu-	.	.	1a	-cu-	.	.
=66-	=66-	=66-	=66-	=66-	=66-	=66-	=66-	=66-	=66-	=66-	=66-	=66-	=66-	=66-	=66-
0A	-lo-	.	.	0c#X	-lo-	.	.	0e	-lo-	.	.	0a	-lo-	.	.
*custos:A	*	*	*	*	*	*	*	*	*	*	*	*	*	*	*
!	!	!	!	!LO:TX:t=P:problem=kreska pseudotaktowa	!	!	!	!LO:TX:t=P:problem=kreska pseudotaktowa	!	!	!	!LO:TX:t=P:problem=kreska pseudotaktowa	!	!	!
1B-X	-ru(m)	.	.	1d	-ru(m)	.	.	1d	-ru(m)	.	.	1g	-ru(m)	.	.
=67-	=67-	=67-	=67-	=67-	=67-	=67-	=67-	=67-	=67-	=67-	=67-	=67-	=67-	=67-	=67-
!LO:LB:g=original	!	!	!	!	!	!	!	!	!	!	!	!	!	!	!
0A	Se-	.	.	0d	Se-	.	.	0e	Sae-	.	.	0a	Se-	.	.
*	*	*	*	*custos:d	*	*	*	*	*	*	*	*	*	*	*
!	!	!	!	!LO:TX:a:t=P:problem=# above	!	!	!	!	!	!	!	!	!	!	!
1A	-cu-	.	.	1c#X	-cu-	.	.	1e	-cu-	.	.	1a	-cu-	.	.
=68-	=68-	=68-	=68-	=68-	=68-	=68-	=68-	=68-	=68-	=68-	=68-	=68-	=68-	=68-	=68-
!LO:TX:t=P:problem=kreska pseudotaktowa	!	!	!	!LO:TX:t=P:problem=kreska pseudotaktowa	!	!	!	!LO:TX:t=P:problem=kreska pseudotaktowa	!	!	!	!LO:TX:t=P:problem=kreska pseudotaktowa	!	!	!
!	!	!	!	!LO:LB:g=original	!	!	!	!	!	!	!	!	!	!	!
0.D	-la	.	.	0.d	-la	.	.	0.f	-la	.	.	0.a	-la	.	.
=69-	=69-	=69-	=69-	=69-	=69-	=69-	=69-	=69-	=69-	=69-	=69-	=69-	=69-	=69-	=69-
*	*ij	*	*	*	*ij	*	*	*	*ij	*	*	*	*ij	*	*
!	!	!	!	!	!	!	!	!LO:LB:g=original	!	!	!	!	!	!	!
1C	in	.	.	1e	in	.	.	1g	in	.	.	1cc	in	.	.
1F	Se-	.	.	1cny	Se-	.	.	1f	Se-	.	.	1a	ſe-	.	.
!LO:TX:t=P:problem=kreska pseudotaktowa	!	!	!	!LO:TX:t=P:problem=kreska pseudotaktowa	!	!	!	!LO:TX:t=P:problem=kreska pseudotaktowa	!	!	!	!LO:TX:t=P:problem=kreska pseudotaktowa	!	!	!
1G	-cu-	.	.	1Bny	-cu-	.	.	1d	-cu-	.	.	1g	-cu-	.	.
=70-	=70-	=70-	=70-	=70-	=70-	=70-	=70-	=70-	=70-	=70-	=70-	=70-	=70-	=70-	=70-
0D	-lo-	.	.	0A	-lo-	.	.	0d	-lo-	.	.	0f	-lo-	.	.
*	*	*	*	*	*	*	*	*	*	*	*	*custos:g	*	*	*
!	!	!	!	!	!	!	!	!	!	!	!	!LO:TX:t=P:problem=kreska pseudotaktowa	!	!	!
!	!	!	!	!	!	!	!	!LO:TX:a:t=P:problem=# above	!	!	!	!	!	!	!
1E	-ru(m)	.	.	1G	-ru(m)	.	.	1c#X	-ru(m)	.	.	1g	-ru(m)	.	.
=71-	=71-	=71-	=71-	=71-	=71-	=71-	=71-	=71-	=71-	=71-	=71-	=71-	=71-	=71-	=71-
!	!	!	!	!	!	!	!	!	!	!	!	!LO:LB:g=original	!	!	!
0D	Se-	.	.	0A	Se-	.	.	0d	Se-	.	.	1g	Se-	.	.
.	.	.	.	.	.	.	.	.	.	.	.	1.f#X	-cu-	.	.
!LO:TX:t=P:problem=kreska pseudotaktowa	!	!	!	!LO:TX:t=P:problem=kreska pseudotaktowa	!	!	!	!LO:TX:t=P:problem=kreska pseudotaktowa	!	!	!	!	!	!	!
1D	-cu-	.	.	1A	-cu-	.	.	1d	-cu-	.	.	.	.	.	.
.	.	.	.	.	.	.	.	.	.	.	.	2f#/	-la	.	.
*	*	*	*	*	*	*	*	*	*	*	*	*	*Xij	*	*
=72-	=72-	=72-	=72-	=72-	=72-	=72-	=72-	=72-	=72-	=72-	=72-	=72-	=72-	=72-	=72-
!	!	!	!	!	!	!	!	!	!	!	!	!LO:TX:t=P:problem=kreska pseudotaktowa	!	!	!
0.GG	-la	.	.	0.B	-la	.	.	0.d	-la	.	.	0.g	.	.	.
*	*Xij	*	*	*	*Xij	*	*	*	*Xij	*	*	*	*	*	*
=73-	=73-	=73-	=73-	=73-	=73-	=73-	=73-	=73-	=73-	=73-	=73-	=73-	=73-	=73-	=73-
*M2/1	*	*	*	*M2/1	*	*	*	*M2/1	*	*	*	*M2/1	*	*	*
*met(C|)	*	*	*	*met(C|)	*	*	*	*met(C|)	*	*	*	*met(C|)	*	*	*
0C	A-	.	.	2.e\	A-	.	.	2.cny/	A-	.	.	0g	A-	.	.
!	!	!	!	!LO:TX:t=P:problem=kreska pseudotaktowa	!	!	!	!	!	!	!	!	!	!	!
.	.	.	.	4d\	.	.	.	4d\	.	.	.	.	.	.	.
.	.	.	.	1.c	.	.	.	1e	.	.	.	.	.	.	.
=74-	=74-	=74-	=74-	=74-	=74-	=74-	=74-	=74-	=74-	=74-	=74-	=74-	=74-	=74-	=74-
0GG;;	-men	.	.	.	.	.	.	0d;;	-men	.	.	0g;;	-men	.	.
.	.	.	.	4B\	.	.	.	.	.	.	.	.	.	.	.
.	.	.	.	4A\	.	.	.	.	.	.	.	.	.	.	.
!	!	!	!	!LO:N:vis=0	!	!	!	!	!	!	!	!	!	!	!
.	.	.	.	1B;;	-men	.	.	.	.	.	.	.	.	.	.
!LO:PB:g=original	!	!	!	!LO:PB:g=original	!	!	!	!LO:PB:g=original	!	!	!	!LO:PB:g=original	!	!	!
=||	=||	=||	=||	=||	=||	=||	=||	=||	=||	=||	=||	=||	=||	=||	=||
*-	*-	*-	*-	*-	*-	*-	*-	*-	*-	*-	*-	*-	*-	*-	*-
!!!system-decoration: [(s1,s2,s3,s4)]
!!!RDF**kern: < = below
!!!RDF**kern: > = above
!!!ENC: Marta Chmielewska
!!!END: 2021-04-09
!!!ENC: Katarzyna Serwa
!!!END: 2021-03-14
